apps/web/public/gmail.svg

<svg id="root" width="46" height="33" viewBox="0 0 46 33" fill="none" xmlns="http://www.w3.org/2000/svg">
<g clip-path="url(#clip0_169_1473)">
<path d="M3.33242 33.0004H10.4915V16.6568L0.26416 9.44629V30.1164C0.26416 31.7098 1.63719 33.0006 3.33242 33.0006V33.0004Z" fill="#939DB8"/>
<path d="M35.0366 33.0004H42.1958C43.8909 33.0004 45.2639 31.7098 45.2639 30.1163V9.44629L35.0366 16.6568V33.0004Z" fill="#62697D"/>
<path d="M35.0366 4.15853V16.6567L45.2639 9.4462V5.60066C45.2639 2.03628 40.9353 0.00052321 37.9003 2.13963L35.0366 4.15853Z" fill="#939DB8"/>
<path fill-rule="evenodd" clip-rule="evenodd" d="M10.4917 16.6563V4.1582L22.7644 12.8108L35.0371 4.1582V16.6563L22.7644 25.3089L10.4917 16.6563Z" fill="#939DB8" fill-opacity="0.6"/>
<path d="M0.26416 5.60066V9.4462L10.4915 16.6567V4.15853L7.62781 2.13964C4.59277 0.000526786 0.26416 2.03628 0.26416 5.6005V5.60066Z" fill="#62697D" fill-opacity="0.5"/>
</g>
<defs>
<clipPath id="clip0_169_1473">
<rect width="45" height="33" fill="white" transform="translate(0.26416 0.000976562)"/>
</clipPath>
</defs>
</svg>

<svg xmlns="http://www.w3.org/2000/svg" fill="none" viewBox="0 0 46 33">
  <path fill="#939DB8" d="M3.332 33h7.16V16.657L.264 9.447v20.67C.264 31.71 1.637 33 3.332 33Z"/>
  <path fill="#62697D" d="M35.037 33h7.159c1.695 0 3.068-1.29 3.068-2.884V9.446l-10.227 7.21V33Z"/>
  <path fill="#939DB8" d="M35.037 4.159v12.498l10.227-7.21V5.6c0-3.565-4.329-5.6-7.364-3.461l-2.863 2.019Z"/>
  <path fill="#939DB8" fill-opacity=".6" fill-rule="evenodd" d="M10.492 16.656V4.158l12.272 8.653 12.273-8.653v12.498L22.764 25.31l-12.272-8.653Z" clip-rule="evenodd"/>
  <path fill="#62697D" fill-opacity=".5" d="M.264 5.6v3.846l10.227 7.21V4.16l-2.863-2.02C4.593.002.264 2.037.264 5.602Z"/>
</svg>
